!!!COM: Beethoven
!!!OTL: 7 Variations on a Quartet by Winter 
!!!Variation: Variation 2a
**harm	**function	**kern	**kern
*M2/4	*M2/4	*staff2	*staff1
*F:	*F:	*clefG2	*clefG2
*	*tb32	*k[b-]	*k[b-]
*	*	*M2/4	*M2/4
*	*	*F:	*F:
4I6	4T	4A	4cc
=	=	=101	=101
2I	2T	(16FLL	(16aLL
.	.	32GL	32b-L
.	.	32AJJ	32ccJJ
.	.	32B-LL	32ddLL
.	.	32c	32ee
.	.	32d	32ff
.	.	32eJJJ)	32ggJJJ)
.	.	8f'L	8aa'L
.	.	8a'J	8ccc'J
=	=	=102	=102
*	*	*	*^
4V6	4T	(8gL	(4bb-	8r
.	.	8eJ	.	4gg
4I	4T	8fL	4aa)	.
.	.	16AL	.	[8ff
.	.	16BJJ)	.	.
=	=	=103	=103	=103
2V	2T	8c'L	(8ggL	16ffLK]
.	.	.	.	8ee
.	.	8C'J	8ffJ	.
.	.	.	.	[16ddJk
.	.	8C'L	8eeL	16ddLK]
.	.	.	.	8cc
.	.	8C'J	8ffJ	.
.	.	.	.	[16ddJk
=	=	=104	=104	=104
4.V	4.T	8C'L	8ggL	16ddLK]
.	.	.	.	8ee
.	.	8C'J	8aaJ	.
.	.	.	.	[16ffJk
.	.	8C'L	8gg)	16ffLL]
.	.	.	.	16eeJ
8I6	8T	8A'J	8r	8cc'J
*	*	*	*v	*v
=	=	=105	=105
2I	2T	(16FLL	(16aLL
.	.	32GL	32b-L
.	.	32AJJ	32ccJJ
.	.	32B-LL	32ddLL
.	.	32c	32ee
.	.	32d	32ff
.	.	32eJJJ)	32ggJJJ)
.	.	8f'L	8aa'L
.	.	8a'J	8ccc'J
=	=	=106	=106
*	*	*	*^
4V6	4T	(8gL	(4bb-	8r
.	.	8eJ	.	4gg
4vi	4T	8fL	[4aa	.
.	.	8dJ)	.	8ff
=	=	=107	=107	=107
8ii6	8P	(8B-L	8aaL]	4dd
8V7/V	8P	8BJ	8ggJ	.
8C64	8D	8cL	8ffL	8aL
8V7	8D	8CJ)	[8eeJ	[8b-J
=	=	=108	=108	=108
4I	4T	8FL	8eeL]	4b-]
.	.	8CJ	8ggJ	.
*	*v	*v	*	*
*-	*-	*-	*-
